icons/unlock.svg

<svg width="24" height="24" viewBox="0 0 24 24" fill="none" xmlns="http://www.w3.org/2000/svg">
<path fill-rule="evenodd" clip-rule="evenodd" d="M12 4C9.23858 4 7 6.23858 7 9V10H20C20.5523 10 21 10.4477 21 11V21C21 21.5523 20.5523 22 20 22H4C3.44772 22 3 21.5523 3 21V11C3 10.4477 3.44772 10 4 10H5V9C5 5.13401 8.13401 2 12 2C14.0733 2 15.937 2.9026 17.2173 4.33309C17.5857 4.74461 17.5507 5.37681 17.1391 5.74513C16.7276 6.11346 16.0954 6.07844 15.7271 5.66691C14.8101 4.6424 13.4807 4 12 4ZM5 12V20H19V12H5ZM10 16C10 15.4477 10.4477 15 11 15H13C13.5523 15 14 15.4477 14 16C14 16.5523 13.5523 17 13 17H11C10.4477 17 10 16.5523 10 16Z" fill="black"/>
</svg>

<svg
  width="24"
  height="24"
  viewBox="0 0 24 24"
  xmlns="http://www.w3.org/2000/svg"
>
  <path
    fill-rule="evenodd"
    clip-rule="evenodd"
    d="M12 4a5 5 0 0 0-5 5v1h13a1 1 0 0 1 1 1v10a1 1 0 0 1-1 1H4a1 1 0 0 1-1-1V11a1 1 0 0 1 1-1h1V9a7 7 0 0 1 12.217-4.667 1 1 0 1 1-1.49 1.334A4.985 4.985 0 0 0 12 4zm-7 8v8h14v-8H5zm5 4a1 1 0 0 1 1-1h2a1 1 0 1 1 0 2h-2a1 1 0 0 1-1-1z"
  />
</svg>
